X: 1
T: Bickerstaff's Prophesie
O: Nathaniel Kynaston (1683-1757)
S: PDF copy of page from an unknown book, plus several online recordings.
R: reel
Z: 2019 John Chambers <jc:trillian.mit.edu>
P: AABB x 3
M: C|
L: 1/8
K: Bb
"A"[|] de |\
"Bb"f4 "Eb"g3a | "F7"fedc "Bb"B2f2 | "Eb"g2f2 "F"g2a2 | "Gm"b4 f4 |\
"Eb"gagf edcB | "F7"AGFE "Bb"D2F2 | "Eb"B3c (B/c/d) "F7"c>B | "Bb"B6 :|
"B"|: AB |\
"F"c4 f4 | "(C7)"cBAG "F"F2c2 | "Bb"d2 c2 d=efg | "C"=e4 c2fg |\
"F"a2g2 "Bb"b3a | "C"gagf =efed | "F"c2f2 "C7"f3e | "F"f6 ||
ga |\
"Eb"b2e2 "Bb"d2b2 | "Eb"gfed "F7"c2fe | "Bb"dcBA "Eb"GABc | "F7"A4 F3E |\
"Bb"D2F2 "Eb"GBAc | "Bb"B2d2 fbfa | "Eb"gfed "F7"c3B | "Bb"B6 :|
